X:1007
T:Mrs Webster
S:Kerr's Merry Melodies, Book 3
Z:Nigel Gatherer
L:1/8
M:4/4
K:Bm
c | dBfB dBBd | cAeA cAAc | dBfB gBfB | cAec dBB :|
f | b2 fe dBBd | cAed cAAa | b2 fe dBBd | cAeA cBBf |
b2 fe dBBd | cAed cAAa | bfge fded | cAec cBB |]
<end>
<start>
